icons/icn_transp.svg

<svg width="24" xmlns="http://www.w3.org/2000/svg" height="23.992" id="screenshot-701359cf-58fd-8059-8006-76ef356bd612" viewBox="0 0 24 23.992" xmlns:xlink="http://www.w3.org/1999/xlink" fill="none" version="1.1"><g id="shape-701359cf-58fd-8059-8006-76ef356bd612"><g class="frame-container-wrapper"><g class="frame-container-blur"><g class="frame-container-shadows"><g fill="none"><g class="fills" id="fills-701359cf-58fd-8059-8006-76ef356bd612"><rect rx="0" ry="0" x="0" y="0" width="24" height="23.992269617594275" transform="matrix(1, 0, 0, 1, 0, 0)" class="frame-background"/></g><g class="frame-children"><g id="shape-e4f319ee-d8cb-80c4-8006-fcc9ce701cf0" rx="0" ry="0"><g id="shape-701359cf-58fd-8059-8006-76ece7daf4d1" style="opacity: 1;"><g class="fills" id="fills-701359cf-58fd-8059-8006-76ece7daf4d1"><path d="M12.003264427185059,2.9800727367401123C7.031828880310059,2.9800727367401123,2.9839773178100586,7.028290271759033,2.9839773178100586,11.998871803283691C2.9839773178100586,16.969818115234375,7.031828880310059,21.012054443359375,12.003264427185059,21.012054443359375C16.973722457885742,21.012054443359375,21.015958786010742,16.969818115234375,21.015958786010742,11.998871803283691C21.015958786010742,7.028290271759033,16.973722457885742,2.9800727367401123,12.003264427185059,2.9800727367401123ZM11.272307395935059,4.483978748321533L11.272307395935059,7.003387928009033C11.274260520935059,7.406219959259033,11.599944114685059,7.731903553009033,12.003264427185059,7.733734607696533C12.405608177185059,7.731903553009033,12.732268333435059,7.406219959259033,12.733000755310059,7.003387928009033L12.733000755310059,4.483978748321533C16.326993942260742,4.826752185821533,19.177335739135742,7.675140857696533,19.520597457885742,11.268525123596191L16.004972457885742,11.268525123596191C15.810149192810059,11.267060279846191,15.622893333435059,11.343720436096191,15.484465599060059,11.480683326721191C15.345061302185059,11.617768287658691,15.267912864685059,11.804169654846191,15.266936302185059,11.998871803283691C15.267912864685059,12.193940162658691,15.345061302185059,12.380341529846191,15.484465599060059,12.517426490783691C15.622893333435059,12.654389381408691,15.810149192810059,12.731049537658691,16.004972457885742,12.729706764221191L19.520597457885742,12.729706764221191C19.177335739135742,16.322967529296875,16.326993942260742,19.173187255859375,12.733000755310059,19.516448974609375L12.733000755310059,16.997039794921875C12.732268333435059,16.594329833984375,12.405608177185059,16.268035888671875,12.003264427185059,16.266204833984375C11.599944114685059,16.268035888671875,11.274260520935059,16.594329833984375,11.272307395935059,16.997039794921875L11.272307395935059,19.516448974609375C7.678557395935059,19.173187255859375,4.831145286560059,16.322967529296875,4.488127708435059,12.729706764221191L8.003508567810059,12.729706764221191C8.405608177185059,12.727753639221191,8.732268333435059,12.401581764221191,8.733244895935059,11.998871803283691C8.732268333435059,11.596039772033691,8.405608177185059,11.270356178283691,8.003508567810059,11.268525123596191L4.488127708435059,11.268525123596191C4.831145286560059,7.675140857696533,7.679533958435059,4.826752185821533,11.272307395935059,4.483978748321533Z" style="display: inline; stroke-linecap: square; stroke-linejoin: round; fill: rgb(0, 0, 0); fill-opacity: 1;"/></g></g></g></g></g></g></g></g></g></svg>

<svg fill="none" viewBox="0 0 24 23.992"><g class="frame-container-wrapper"><g class="frame-container-blur"><g class="frame-container-shadows"><g class="fills"><rect width="24" height="23.9923" class="frame-background" rx="0" ry="0"/></g><g class="frame-children"><path fill="#000" d="M12.0033 2.98c-4.9715 0-9.0193 4.0483-9.0193 9.0189 0 4.971 4.0478 9.0132 9.0193 9.0132 4.9704 0 9.0127-4.0423 9.0127-9.0132 0-4.9706-4.0423-9.0188-9.0127-9.0188Zm-.731 1.504v2.5194a.7337.7337 0 0 0 .731.7303c.4023-.0018.729-.3275.7297-.7303V4.484c3.594.3428 6.4443 3.1911 6.7876 6.7845H16.005a.7326.7326 0 0 0-.5205.2122.7303.7303 0 0 0-.2176.5182.7305.7305 0 0 0 .2176.5185.7332.7332 0 0 0 .5205.2123h3.5156c-.3433 3.5933-3.1936 6.4435-6.7876 6.7867V16.997c-.0007-.4027-.3274-.729-.7297-.7308a.7342.7342 0 0 0-.731.7308v2.5194c-3.5937-.3432-6.4412-3.1934-6.7842-6.7867h3.5154c.4021-.002.7288-.3281.7297-.7308-.001-.4029-.3276-.7285-.7297-.7304H4.4881c.343-3.5934 3.1914-6.4417 6.7842-6.7845Z" class="fills"/></g></g></g></g></svg>
